X:1
T:Row, row, row your boat
Z:Oleandra Fields of Silverlode
M:6/4
L:1/4
Q:1/2=200
K:C
C3 C3| C2 D E3| E2 D E2 F| G6| c c c G G G| E E E C C C| G2 F E2 D| C6 |
C3 C3| C2 D E3| E2 D E2 F| G6| c c c G G G| E E E C C C| G2 F E2 D| C6 |
